X: 5
T: Rosin the Bow
R: jig
M: 6/8
L: 1/8
Z: 2010 John Chambers <jc:trillian.mit.edu>
K: G
D | GAB cde | d3 gdB | dcB Adc | B3 A2D |\
    GAB cde | d3 gd^c | dAF EG^C | D3 D2 :|
|: d |\
    dbd cac | BgB | A2d | dbd cac | BgB A2D |\
	GAB cde | d3 gdB | ABc DEF | G3 G2 :|

%%sep 1 1 500
